wp-content/plugins/LayerSlider/assets/static/admin/svgs/solid/map.svg

<svg viewBox="0 0 576 512" xmlns="http://www.w3.org/2000/svg"><path d="m0 117.66v346.32c0 11.32 11.43 19.06 21.94 14.86l138.06-62.84v-384l-139.88 55.95a32.006 32.006 0 0 0 -20.12 29.71zm192 298.34 192 64v-384l-192-64zm362.06-382.84-138.06 62.84v384l139.88-55.95a31.996 31.996 0 0 0 20.12-29.71v-346.32c0-11.32-11.43-19.06-21.94-14.86z"/></svg>

<svg xmlns="http://www.w3.org/2000/svg" viewBox="0 0 576 512"><!-- Font Awesome Pro 5.15.3 by @fontawesome - https://fontawesome.com License - https://fontawesome.com/license (Commercial License) --><path d="M0 117.66v346.32c0 11.32 11.43 19.06 21.94 14.86L160 416V32L20.12 87.95A32.006 32.006 0 0 0 0 117.66zM192 416l192 64V96L192 32v384zM554.06 33.16L416 96v384l139.88-55.95A31.996 31.996 0 0 0 576 394.34V48.02c0-11.32-11.43-19.06-21.94-14.86z"/></svg>
